X:1
T:Kent, CM
T:Samuel Stanley, ca. 1800
T:Kent, CM
T:Public Domain
C:Samuel Stanley, ca. 1800
Z:Public Domain
%%score ( 1 2 ) ( 3 4 )
L:1/8
M:4/4
K:Bb
V:1 treble 
V:2 treble 
V:3 bass 
V:4 bass 
V:1
 [DB]2 | [FB]2 [EG]2 [DF]2 [Fd]2 | [Ec]2 [CA]2 [DB]2 [FB]2 | [Fc]2 [Fd]2 (cA) [=EG]2 | F6 [DB]2 | %5
 [EG]2 [=Ec]2 [FA]2 [^Fd]2 | [GB]2 [Ge]2 [Fc]2 [Fc]2 | [Fd]2 [Ge]2 d2 z E x | [DB]6 |] %9
V:2
 x2 | x8 | x8 | x4 F2 x2 | F6 x2 | x8 | x8 | x4 F3 c2 | x6 |] %9
V:3
 [B,,F,]2 | [D,B,]2 [E,B,]2 [B,,B,]2 [B,,B,]2 | [E,G,]2 F,2 [B,,F,]2 [B,,D]2 | %3
 [A,,C]2 [B,,B,]2 [C,A,]2 (CB,) | [F,A,]6 [B,,B,]2 | [E,B,]2 [C,C]2 [F,C]2 [D,D]2 | %6
 [G,D]2 [E,E]2 [F,A,]2 [F,A,]2 | B,2 [E,B,]2 [F,B,]2 [F,A,]2 x | [B,,B,]6 |] %9
V:4
 x2 | x8 | x2 F,2 x4 | x6 C,2 | x8 | x8 | x8 | B,2 x7 | x6 |] %9

